src/pos-icons/format-header-1.svg

<svg height="24" viewBox="0 0 24 24" width="24" xmlns="http://www.w3.org/2000/svg"><path d="m3 4h2v6h4v-6h2v14h-2v-6h-4v6h-2zm11 14v-2h2v-9.69l-2.5 1.44v-2.31l2.5-1.44h2v12h2v2z"/></svg>

<?xml version="1.0" encoding="UTF-8"?><!DOCTYPE svg PUBLIC "-//W3C//DTD SVG 1.1//EN" "http://www.w3.org/Graphics/SVG/1.1/DTD/svg11.dtd"><svg xmlns="http://www.w3.org/2000/svg" xmlns:xlink="http://www.w3.org/1999/xlink" version="1.1" id="mdi-format-header-1" width="24" height="24" viewBox="0 0 24 24"><path d="M3,4H5V10H9V4H11V18H9V12H5V18H3V4M14,18V16H16V6.31L13.5,7.75V5.44L16,4H18V16H20V18H14Z" /></svg>
